source/img/map-mark.svg

<svg width="45" height="45" fill="none" xmlns="http://www.w3.org/2000/svg"><circle cx="22.5" cy="22.5" r="22.5" fill="#121936"/><path d="M22.5 12c-4.3483 0-7.875 3.5267-7.875 7.875 0 5.0584 3.8035 7.2699 4.6442 8.2788C21.2885 30.5769 21.4026 33 22.5 33s1.2115-2.4231 3.2308-4.8462c.8407-1.0089 4.6442-3.2204 4.6442-8.2788 0-4.3483-3.5267-7.875-7.875-7.875zm0 13.125c-2.8993 0-5.25-2.3507-5.25-5.25s2.3507-5.25 5.25-5.25 5.25 2.3507 5.25 5.25-2.3507 5.25-5.25 5.25zm0-7.875c-1.449 0-2.625 1.176-2.625 2.625S21.051 22.5 22.5 22.5s2.625-1.176 2.625-2.625-1.176-2.625-2.625-2.625z" fill="#FFD74B"/><circle cx="22.5" cy="19.875" fill="#161C35" r=".875"/></svg>

<svg width="45" height="45" viewBox="0 0 45 45" fill="none" xmlns="http://www.w3.org/2000/svg">
<circle cx="22.5" cy="22.5" r="22.5" fill="#121936"/>
<path d="M22.5 12C18.1517 12 14.625 15.5267 14.625 19.875C14.625 24.9334 18.4285 27.1449 19.2692 28.1538C21.2885 30.5769 21.4026 33 22.5 33C23.5974 33 23.7115 30.5769 25.7308 28.1538C26.5715 27.1449 30.375 24.9334 30.375 19.875C30.375 15.5267 26.8483 12 22.5 12ZM22.5 25.125C19.6007 25.125 17.25 22.7743 17.25 19.875C17.25 16.9757 19.6007 14.625 22.5 14.625C25.3993 14.625 27.75 16.9757 27.75 19.875C27.75 22.7743 25.3993 25.125 22.5 25.125ZM22.5 17.25C21.051 17.25 19.875 18.426 19.875 19.875C19.875 21.324 21.051 22.5 22.5 22.5C23.949 22.5 25.125 21.324 25.125 19.875C25.125 18.426 23.949 17.25 22.5 17.25Z" fill="#FFD74B"/>
<ellipse cx="22.5" cy="19.875" rx="0.875001" ry="0.875" fill="#161C35"/>
</svg>
